app/dist/common/images/advanced-energy-industries.svg

<svg height="18" width="18" xmlns="http://www.w3.org/2000/svg"><path d="m0 0h18v18h-18z" fill="#f0f3fa"/><path d="m13.393 5h-5l.573 1h4.363zm0 3.5h-3.393l.5 1h2.893zm0 3.5h-1.893l.533 1h1.36z" fill="#56565a"/><path d="m8.335 7.498-.725 1.377 1.494 3.125h-3.993l1.503-3.1h-.004l1.23-2.34-.722-1.374-4.118 7.814h8.156l-2.82-5.502z" fill="#fe5000"/></svg>

<!-- by TradingView --><svg width="18" height="18" xmlns="http://www.w3.org/2000/svg"><path fill="#F0F3FA" d="M0 0h18v18H0z"/><path d="M13.393 5h-5l.573 1h4.363l.064-1zM13.393 8.5H10l.5 1h2.893v-1zM13.393 12H11.5l.533 1h1.36v-1z" fill="#56565A"/><path d="M8.335 7.498L7.61 8.875 9.104 12H5.111l1.503-3.1H6.61l1.23-2.34-.722-1.374L3 13h8.156l-2.82-5.502z" fill="#FE5000"/></svg>
